docs/img/endLess - icon.svg

<svg width="55" height="13" viewBox="0 0 55 13" fill="none" xmlns="http://www.w3.org/2000/svg">
<path d="M7.79801 8.626H1.63801C1.69401 9.39133 1.98801 10.012 2.52001 10.488C3.05201 10.9547 3.72401 11.188 4.53601 11.188C4.99335 11.188 5.41335 11.1087 5.79601 10.95C6.17868 10.782 6.51001 10.5393 6.79001 10.222L7.35001 10.866C7.02335 11.258 6.61268 11.5567 6.11801 11.762C5.63268 11.9673 5.09601 12.07 4.50801 12.07C3.75201 12.07 3.08001 11.9113 2.49201 11.594C1.91335 11.2673 1.46068 10.8193 1.13401 10.25C0.807346 9.68067 0.644012 9.03667 0.644012 8.318C0.644012 7.59933 0.798012 6.95533 1.10601 6.386C1.42335 5.81667 1.85268 5.37333 2.39401 5.056C2.94468 4.73867 3.56068 4.58 4.24201 4.58C4.92335 4.58 5.53468 4.73867 6.07601 5.056C6.61735 5.37333 7.04201 5.81667 7.35001 6.386C7.65801 6.946 7.81201 7.59 7.81201 8.318L7.79801 8.626ZM4.24201 5.434C3.53268 5.434 2.93535 5.66267 2.45001 6.12C1.97401 6.568 1.70335 7.156 1.63801 7.884H6.86001C6.79468 7.156 6.51935 6.568 6.03401 6.12C5.55801 5.66267 4.96068 5.434 4.24201 5.434Z" fill="#868686"/>
<path d="M13.5872 4.58C14.5112 4.58 15.2439 4.85067 15.7852 5.392C16.3359 5.924 16.6112 6.70333 16.6112 7.73V12H15.6172V7.828C15.6172 7.06267 15.4259 6.47933 15.0432 6.078C14.6606 5.67667 14.1146 5.476 13.4052 5.476C12.6119 5.476 11.9819 5.714 11.5152 6.19C11.0579 6.65667 10.8292 7.30533 10.8292 8.136V12H9.83523V4.636H10.7872V5.994C11.0579 5.546 11.4312 5.20067 11.9072 4.958C12.3926 4.706 12.9526 4.58 13.5872 4.58Z" fill="#868686"/>
<path d="M26.0572 1.612V12H25.1052V10.544C24.8065 11.0387 24.4099 11.4167 23.9152 11.678C23.4299 11.9393 22.8792 12.07 22.2632 12.07C21.5725 12.07 20.9472 11.9113 20.3872 11.594C19.8272 11.2767 19.3885 10.8333 19.0712 10.264C18.7539 9.69467 18.5952 9.046 18.5952 8.318C18.5952 7.59 18.7539 6.94133 19.0712 6.372C19.3885 5.80267 19.8272 5.364 20.3872 5.056C20.9472 4.73867 21.5725 4.58 22.2632 4.58C22.8605 4.58 23.3972 4.706 23.8732 4.958C24.3585 5.20067 24.7552 5.56 25.0632 6.036V1.612H26.0572ZM22.3472 11.188C22.8605 11.188 23.3225 11.0713 23.7332 10.838C24.1532 10.5953 24.4799 10.2547 24.7132 9.816C24.9559 9.37733 25.0772 8.878 25.0772 8.318C25.0772 7.758 24.9559 7.25867 24.7132 6.82C24.4799 6.38133 24.1532 6.04533 23.7332 5.812C23.3225 5.56933 22.8605 5.448 22.3472 5.448C21.8245 5.448 21.3532 5.56933 20.9332 5.812C20.5225 6.04533 20.1959 6.38133 19.9532 6.82C19.7199 7.25867 19.6032 7.758 19.6032 8.318C19.6032 8.878 19.7199 9.37733 19.9532 9.816C20.1959 10.2547 20.5225 10.5953 20.9332 10.838C21.3532 11.0713 21.8245 11.188 22.3472 11.188Z" fill="#868686"/>
<path d="M26.386 1.612H27.38V12H26.386V1.612Z" fill="#363636"/>
<path d="M36.5578 8.626H30.3978C30.4538 9.39133 30.7478 10.012 31.2798 10.488C31.8118 10.9547 32.4838 11.188 33.2958 11.188C33.7531 11.188 34.1731 11.1087 34.5558 10.95C34.9384 10.782 35.2698 10.5393 35.5498 10.222L36.1098 10.866C35.7831 11.258 35.3724 11.5567 34.8778 11.762C34.3924 11.9673 33.8558 12.07 33.2678 12.07C32.5118 12.07 31.8398 11.9113 31.2518 11.594C30.6731 11.2673 30.2204 10.8193 29.8938 10.25C29.5671 9.68067 29.4038 9.03667 29.4038 8.318C29.4038 7.59933 29.5578 6.95533 29.8658 6.386C30.1831 5.81667 30.6124 5.37333 31.1538 5.056C31.7044 4.73867 32.3204 4.58 33.0018 4.58C33.6831 4.58 34.2944 4.73867 34.8358 5.056C35.3771 5.37333 35.8018 5.81667 36.1098 6.386C36.4178 6.946 36.5718 7.59 36.5718 8.318L36.5578 8.626ZM33.0018 5.434C32.2924 5.434 31.6951 5.66267 31.2098 6.12C30.7338 6.568 30.4631 7.156 30.3978 7.884H35.6198C35.5544 7.156 35.2791 6.568 34.7938 6.12C34.3178 5.66267 33.7204 5.434 33.0018 5.434Z" fill="#363636"/>
<path d="M40.569 12.07C39.9716 12.07 39.3976 11.986 38.847 11.818C38.3056 11.6407 37.881 11.4213 37.573 11.16L38.021 10.376C38.329 10.6187 38.7163 10.8193 39.183 10.978C39.6496 11.1273 40.135 11.202 40.639 11.202C41.311 11.202 41.8056 11.0993 42.123 10.894C42.4496 10.6793 42.613 10.3807 42.613 9.998C42.613 9.72733 42.5243 9.51733 42.347 9.368C42.1696 9.20933 41.9456 9.09267 41.675 9.018C41.4043 8.934 41.045 8.85467 40.597 8.78C39.9996 8.668 39.519 8.556 39.155 8.444C38.791 8.32267 38.4783 8.122 38.217 7.842C37.965 7.562 37.839 7.17467 37.839 6.68C37.839 6.064 38.0956 5.56 38.609 5.168C39.1223 4.776 39.8363 4.58 40.751 4.58C41.227 4.58 41.703 4.64533 42.179 4.776C42.655 4.89733 43.047 5.06067 43.355 5.266L42.921 6.064C42.3143 5.644 41.591 5.434 40.751 5.434C40.1163 5.434 39.6356 5.546 39.309 5.77C38.9916 5.994 38.833 6.288 38.833 6.652C38.833 6.932 38.9216 7.156 39.099 7.324C39.2856 7.492 39.5143 7.618 39.785 7.702C40.0556 7.77667 40.429 7.856 40.905 7.94C41.493 8.052 41.9643 8.164 42.319 8.276C42.6736 8.388 42.977 8.57933 43.229 8.85C43.481 9.12067 43.607 9.494 43.607 9.97C43.607 10.614 43.3363 11.1273 42.795 11.51C42.263 11.8833 41.521 12.07 40.569 12.07Z" fill="#363636"/>
<path d="M47.4186 12.07C46.8212 12.07 46.2472 11.986 45.6966 11.818C45.1552 11.6407 44.7306 11.4213 44.4226 11.16L44.8706 10.376C45.1786 10.6187 45.5659 10.8193 46.0326 10.978C46.4992 11.1273 46.9846 11.202 47.4886 11.202C48.1606 11.202 48.6552 11.0993 48.9726 10.894C49.2992 10.6793 49.4626 10.3807 49.4626 9.998C49.4626 9.72733 49.3739 9.51733 49.1966 9.368C49.0192 9.20933 48.7952 9.09267 48.5246 9.018C48.2539 8.934 47.8946 8.85467 47.4466 8.78C46.8492 8.668 46.3686 8.556 46.0046 8.444C45.6406 8.32267 45.3279 8.122 45.0666 7.842C44.8146 7.562 44.6886 7.17467 44.6886 6.68C44.6886 6.064 44.9452 5.56 45.4586 5.168C45.9719 4.776 46.6859 4.58 47.6006 4.58C48.0766 4.58 48.5526 4.64533 49.0286 4.776C49.5046 4.89733 49.8966 5.06067 50.2046 5.266L49.7706 6.064C49.1639 5.644 48.4406 5.434 47.6006 5.434C46.9659 5.434 46.4852 5.546 46.1586 5.77C45.8412 5.994 45.6826 6.288 45.6826 6.652C45.6826 6.932 45.7712 7.156 45.9486 7.324C46.1352 7.492 46.3639 7.618 46.6346 7.702C46.9052 7.77667 47.2786 7.856 47.7546 7.94C48.3426 8.052 48.8139 8.164 49.1686 8.276C49.5232 8.388 49.8266 8.57933 50.0786 8.85C50.3306 9.12067 50.4566 9.494 50.4566 9.97C50.4566 10.614 50.1859 11.1273 49.6446 11.51C49.1126 11.8833 48.3706 12.07 47.4186 12.07Z" fill="#363636"/>
</svg>

<svg width="55" height="13" fill="none" xmlns="http://www.w3.org/2000/svg"><path d="M7.798 8.626h-6.16c.056.765.35 1.386.882 1.862.532.467 1.204.7 2.016.7.457 0 .877-.08 1.26-.238.383-.168.714-.41.994-.728l.56.644c-.327.392-.737.69-1.232.896a4.092 4.092 0 01-1.61.308c-.756 0-1.428-.159-2.016-.476a3.545 3.545 0 01-1.358-1.344c-.327-.57-.49-1.213-.49-1.932 0-.719.154-1.363.462-1.932a3.461 3.461 0 011.288-1.33 3.634 3.634 0 011.848-.476c.681 0 1.293.159 1.834.476.541.317.966.76 1.274 1.33.308.56.462 1.204.462 1.932l-.014.308zM4.242 5.434c-.71 0-1.307.229-1.792.686-.476.448-.747 1.036-.812 1.764H6.86c-.065-.728-.34-1.316-.826-1.764-.476-.457-1.073-.686-1.792-.686zM13.587 4.58c.924 0 1.657.27 2.198.812.55.532.826 1.311.826 2.338V12h-.994V7.828c0-.765-.191-1.349-.574-1.75-.382-.401-.928-.602-1.638-.602-.793 0-1.423.238-1.89.714-.457.467-.686 1.115-.686 1.946V12h-.994V4.636h.952v1.358c.27-.448.644-.793 1.12-1.036.486-.252 1.046-.378 1.68-.378zM26.057 1.612V12h-.952v-1.456a3.018 3.018 0 01-1.19 1.134c-.485.261-1.036.392-1.652.392-.69 0-1.316-.159-1.876-.476a3.402 3.402 0 01-1.316-1.33c-.317-.57-.476-1.218-.476-1.946s.159-1.377.476-1.946a3.306 3.306 0 011.316-1.316 3.738 3.738 0 011.876-.476c.597 0 1.134.126 1.61.378.485.243.882.602 1.19 1.078V1.612h.994zm-3.71 9.576c.513 0 .976-.117 1.386-.35.42-.243.747-.583.98-1.022.243-.439.364-.938.364-1.498s-.121-1.06-.364-1.498a2.43 2.43 0 00-.98-1.008 2.673 2.673 0 00-1.386-.364c-.523 0-.994.121-1.414.364-.41.233-.737.57-.98 1.008-.233.439-.35.938-.35 1.498s.117 1.06.35 1.498c.243.439.57.78.98 1.022.42.233.892.35 1.414.35z" fill="#868686"/><path d="M26.386 1.612h.994V12h-.994V1.612zM36.558 8.626h-6.16c.056.765.35 1.386.882 1.862.532.467 1.204.7 2.016.7.457 0 .877-.08 1.26-.238.382-.168.714-.41.994-.728l.56.644c-.327.392-.738.69-1.232.896a4.092 4.092 0 01-1.61.308c-.756 0-1.428-.159-2.016-.476a3.545 3.545 0 01-1.358-1.344c-.327-.57-.49-1.213-.49-1.932 0-.719.154-1.363.462-1.932a3.46 3.46 0 011.288-1.33 3.634 3.634 0 011.848-.476c.681 0 1.292.159 1.834.476.541.317.966.76 1.274 1.33.308.56.462 1.204.462 1.932l-.014.308zm-3.556-3.192c-.71 0-1.307.229-1.792.686-.476.448-.747 1.036-.812 1.764h5.222c-.066-.728-.34-1.316-.826-1.764-.476-.457-1.074-.686-1.792-.686zM40.569 12.07a5.868 5.868 0 01-1.722-.252c-.541-.177-.966-.397-1.274-.658l.448-.784c.308.243.695.443 1.162.602.467.15.952.224 1.456.224.672 0 1.167-.103 1.484-.308.327-.215.49-.513.49-.896 0-.27-.089-.48-.266-.63a1.647 1.647 0 00-.672-.35 8.476 8.476 0 00-1.078-.238 13.624 13.624 0 01-1.442-.336 2.226 2.226 0 01-.938-.602c-.252-.28-.378-.667-.378-1.162 0-.616.257-1.12.77-1.512.513-.392 1.227-.588 2.142-.588.476 0 .952.065 1.428.196.476.121.868.285 1.176.49l-.434.798c-.607-.42-1.33-.63-2.17-.63-.635 0-1.115.112-1.442.336-.317.224-.476.518-.476.882 0 .28.089.504.266.672.187.168.415.294.686.378.27.075.644.154 1.12.238.588.112 1.06.224 1.414.336.355.112.658.303.91.574.252.27.378.644.378 1.12 0 .644-.27 1.157-.812 1.54-.532.373-1.274.56-2.226.56zM47.419 12.07a5.868 5.868 0 01-1.722-.252c-.542-.177-.966-.397-1.274-.658l.448-.784c.308.243.695.443 1.162.602.466.15.952.224 1.456.224.672 0 1.166-.103 1.484-.308.326-.215.49-.513.49-.896 0-.27-.09-.48-.266-.63a1.647 1.647 0 00-.672-.35 8.476 8.476 0 00-1.078-.238 13.624 13.624 0 01-1.442-.336 2.226 2.226 0 01-.938-.602c-.252-.28-.378-.667-.378-1.162 0-.616.256-1.12.77-1.512.513-.392 1.227-.588 2.142-.588.476 0 .952.065 1.428.196.476.121.868.285 1.176.49l-.434.798c-.607-.42-1.33-.63-2.17-.63-.635 0-1.116.112-1.442.336-.318.224-.476.518-.476.882 0 .28.088.504.266.672.186.168.415.294.686.378.27.075.644.154 1.12.238.588.112 1.059.224 1.414.336.354.112.658.303.91.574.252.27.378.644.378 1.12 0 .644-.271 1.157-.812 1.54-.532.373-1.274.56-2.226.56z" fill="#363636"/></svg>
